X:1
T:James Gibb editions
T:All praise to Thee, my God, this night - Barnby
%%score [ ( 1 2 ) ( 3 4 ) ]
L:1/8
Q:1/4=72
M:4/4
K:Bb
V:1 treble nm="Midi_74"
V:2 treble 
V:3 bass nm="Midi_74"
V:4 bass 
V:1
"^Thomas Ken\n(1637-1711)""^All praise to Thee, my God, this night""^St Peter (L.M.)""^Joseph Barnby\n(1838-96)" F2 | %1
 B2 A2 G2 B2 | e2 e2 d2 || d2 | c2 A2 F2 G2 | A2 G2 F2 ||[M:4/4] F2 | B2 A2 G2 B2 | e2 e2 d2 || %9
 c2 | B2 A2 G2 B2 | d2 c2 B4 || B4 B4 |] %13
V:2
 D2 | F2 D2 E2 F2 | G2 F2 F2 || =E2 | F2 F2 F2 F2 | F2 =E2 F2 ||[M:4/4] !courtesy!_E2 | %7
 D2 F2 E2 F2 | G2 G2 ^F2 || D2 | D2 ^F2 G2 E2 | F2 E2 D4 || E4 D4 |] %13
V:3
 B,2 | B,2 B,2 B,2 B,2 | B,2 A,2 B,2 || G,2 | A,2 C2 A,2 B,2 | C2 B,2 A,2 || %6
[M:4/4]"^1 All praise to Thee, my God, this night,\nfor all the blessings of the light.\nKeep me, O keep me, King of kings,\nbeneath Thine own almighty wings.\n\n2 Forgive me, Lord, for Thy dear Son,\nthe ill that I this day have done,\nthat with the world, myself, and Thee,\nI, ere I sleep, at peace may be.\n\n3 O may my soul on Thee repose,\nand may sweet sleep mine eyelids close;\nsleep, that may me more vig'rous make,\nto serve my God, when I awake.\n\n4 Praise God, from whom all blessings flow;\npraise Him all creatures here below;\npraise Him above, ye heav'nly host,\npraise Father, Son, and Holy Ghost.\n" C2 | %7
 F,2 B,2 B,2 B,2 | G,2 A,2 A,2 || A,2 | G,2 C2 B,2 G,2 | A,2 A,2 B,4 || G,4 F,4 |] %13
V:4
 B,,2 | D,2 B,,2 E,2 D,2 | C,2 F,2 B,,2 || B,,2 | A,,2 A,,2 D,2 D,2 | C,2 C,2 F,2 ||[M:4/4] A,,2 | %7
 B,,2 D,2 E,2 D,2 | C,2 C,2 D,2 || ^F,2 | G,2 D,2 E,2 G,2 | F,2 F,2 B,,4 || E,4 B,,4 |] %13

